!!!!SEGMENT: pl-sa--305-a-vii-65--001_lechleitner-ferdinand-simon--vespere-domine-ad-adiuvandum.krn
!!!cenid: 17xx:394
!!!COM: Lechleitner, Ferdinand Simon
!!!COM-rismID: pe30001903
!!!CDT: ~1700-~1800
!!!CNT:
!!!OPR: Vespere
!!!OTL: Domine ad adiuvandum
!!!OMV: 001
!!!PDT:
!!!AGN: Sacred; Vespers
!!!SMS-siglum: PL-SA
!!!SMS-shelfmark: 305/A VII 65
!!!SMS-shelfwork: 001-001 M
!!!NIFC-rismSourceID: 1001077319
!!!NIFC-rismChildID: 1001077319
!!!NIFC-islandoraID: none
!!!URL-pdf-islandora:
!!!URL-scan: https://bc.bdsandomierz.pl/dlibra/publication/1610/edition/1578/content @EN{Scan in the Sandomierz Diocese Digital Library} @PL{Skany w portalu Cyfrowa Biblioteka Diecezjalna w Sandomierzu}
!!!IIIF:
!!!ONB-nifc: UWAGA: części Vespere: Domine ad adiuvandum, Dixit dominus, Confitebor, Beatus vir, Laudate pueri, Credidi, Magnificat
!!!AIN: 1 alto 3 empty 1 organ 1 tenor 2 violn 1 vox
!!!key:
**kern	**fba	**kern	**kern	**kern	**text	**kern	**text	**kern	**text	**kern	**text	**kern	**kern
*part9	*	*part8	*part7	*part6	*part6	*part5	*part5	*part4	*part4	*part3	*part3	*part2	*part1
*staff9	*	*staff8	*staff7	*staff6	*staff6	*staff5	*staff5	*staff4	*staff4	*staff3	*staff3	*staff2	*staff1
*Iorgan	*	*Ivioln	*Ivioln	*Iempty	*	*Itenor	*	*Ialto	*	*Ivox	*	*Iempty	*Iempty
*I"Organo	*	*I"Violino Secundo	*I"Violino Primo	*I"Baſso	*	*I"Tenore	*	*I"Alto	*	*I"Canto	*	*I"Clarino 2do	*I"Clarino 1mo
*I'org	*	*I'vl II	*I'vl I	*I'B	*	*I'T	*	*I'A	*	*I'C	*	*I'Clno II	*I'clno I
*clefF4	*	*clefG2	*clefG2	*clefF4	*	*clefC4	*	*clefC3	*	*clefC1	*	*clefG2	*clefG2
*k[]	*	*k[]	*k[]	*k[]	*	*k[]	*	*k[]	*	*k[]	*	*k[]	*k[]
*C:	*	*C:	*C:	*C:	*	*C:	*	*C:	*	*C:	*	*C:	*C:
*M2/2	*	*M2/2	*M2/2	*M2/2	*	*M2/2	*	*M2/2	*	*M2/2	*	*M2/2	*M2/2
*met(C.)	*	*met(c|)	*met(c|)	*met(C.)	*	*met(c|)	*	*met(c|)	*	*met(C.)	*	*met(c|)	*met(c|)
=1	=1	=1	=1	=1	=1	=1	=1	=1	=1	=1	=1	=1	=1
!	!	!LO:TX:a:t=P:problem=ósemki skierowane w dół kaudy z prawej strony	!LO:TX:a:t=P:problem=ósemki skierowane w dół kaudy z prawej strony	!LO:TX:a:t=P:problem=ósemki skierowane w dół kaudy z prawej strony	!	!LO:TX:a:t=P:problem=ósemki skierowane w dół kaudy z prawej strony	!	!LO:TX:a:t=P:problem=ósemki skierowane w dół kaudy z prawej strony	!	!LO:TX:a:t=P:problem=ósemki skierowane w dół kaudy z prawej strony	!	!LO:TX:a:t=P:problem=ósemki skierowane w dół kaudy z prawej strony	!LO:TX:a:t=P:problem=ósemki skierowane w dół kaudy z prawej strony
!	!	!	!	!	!	!	!	!	!	!LO:TX:i:a:t=Tutti	!	!LO:TX:b:i:t=Domine ad adiuvandum	!LO:TX:b:i:t=Domine ad adiuvandum
!	!	!	!LO:TX:b:i:t=Domine ad adiuvandum	!	!	!	!	!	!	!	!	!	!
!LO:TX:b:i:t=Domine ad adiuvandum	!	!LO:TX:a:i:t=allegro	!LO:TX:a:i:t=allegro	!LO:TX:a:i:t=allegro	!	!LO:TX:a:i:t=allegro	!	!LO:TX:a:i:t=alle(gro)&colon;	!	!LO:TX:a:t=P:problem=partia na karcie nr 8 w źródle	!	!LO:TX:a:i:t=alle(gro)&colon;	!LO:TX:a:i:t=alle(gro)
8C/L	.	16ee\LL	16gg\LL	8C/	Do-	8.c\	Do-	8.g\	Do-	8.ee\	Do-	8.ee\L	8.gg\L
.	.	16ff\	16aa\	.	.	.	.	.	.	.	.	.	.
8D/	X 6	16ee\	16gg\	8D/	-mi-	.	.	.	.	.	.	.	.
!	!	!	!	!	!	!	!	!LO:N:vis=8	!	!	!	!	!
.	.	16dd\JJ	16ff\JJ	.	.	16B\	-mi-	16f\	-mi-	16dd\	-mi-	16dd\K	16ff\Jk
!	!	!	!	!	!	!	!	!LO:TX:a:t=P:global:problem=oddech na dole	!	!	!	!	!
8E/	X 6	8cc\L	8ee\L	8E\	-ne	8c\	-ne	8e,\	-ne	8cc\	-ne	8cc\	8ee\L
8F/J	.	8ff\J	8aa\J	8F\	ad	8A/	ad	8a\	ad	8cc\	ad	8ff\J	8aa\J
!LO:TX:a:t=P:problem=ósemki skierowane w dół kaudy z prawej strony	!	!	!	!	!	!	!	!	!	!	!	!	!
8G\L	.	8dd\L	8gg\L	8G\	ad-	8B\	ad-	8g\	ad-	8dd\	ad-	8dd\L	8gg\L
8A\	X 6	8cc\J	8ff\J	8A\	-ju-	8c\	-ju-	8f\	-ju-	8cc\	-ju-	8cc\J	8ff\J
!	!	!	!	!	!	!	!	!	!	!	!	!LO:TX:a:t=P:problem=mixed beam	!
8B\	X 6	8b/L	8gg\L	8B\	-van-	8d\	-van-	8g\	-van-	8b\	-van-	8dd\L	8gg\L
8c\J	.	8g/J	16ff\L	8c\	-dum,	8c\	-dum	8g\	-dum	8ee\	-dum,	16g/L	16ff\L
.	.	.	16ee\JJ	.	.	.	.	.	.	.	.	16g/JJ	16ee\JJ
=2	=2	=2	=2	=2	=2	=2	=2	=2	=2	=2	=2	=2	=2
!	!	!	!	!	!	!	!	!	!	!	!	!LO:TX:a:t=P:problem=mixed beam	!
8G\L	.	8b\L	8dd\L	8G\	me	8B\	me	8g\	me	8dd\	me	8g/L	8dd\L
8E\	X 6	8cc\	8gg\	8E\	fe-	8e\	fe-	8g\	fe-	8cc\	fe-	8ee\J	8gg\J
8F\	6 5	8cc\	8aa\	(>8F\L	-ſti-	4d\	-sti-	(>8a\L	-sti-	(>8.cc\L	-ſti-	16dd\LL	16ff\LL
.	.	.	.	.	.	.	.	.	.	.	.	16ff\	16aa\
8G\J	.	8ff\J	8bb\J	8G\J)	.	.	.	8g\J)	.	.	.	16ee\	16gg\
.	.	.	.	.	.	.	.	.	.	16b\Jk)	.	16dd\JJ	16ff\JJ
8C/L	.	4ee\	4ccc\	4C/	-na	4e\	-na.	4g\	-na,	4cc\	-na	4cc\	4ee\
8D/	.	.	.	.	.	.	.	.	.	.	.	.	.
8E/	.	4r	4r	4r	.	4r	.	(>16e\LL	glo-	16cc\LL	glo-	4r	4r
.	.	.	.	.	.	.	.	16f\JJ)	.	16dd\JJ	.	.	.
!	!	!	!	!	!	!	!	!	!	!LO:TX:a:t=P:problem=niewyraźny zapis	!	!	!
8C/J	.	.	.	.	.	.	.	16e\	-ri-	16cc\	-ri-	.	.
.	.	.	.	.	.	.	.	16d\	-a	16b\	-a	.	.
=3	=3	=3	=3	=3	=3	=3	=3	=3	=3	=3	=3	=3	=3
!	!	!LO:TX:a:t=I	!LO:TX:a:t=I	!LO:TX:a:t=I	!	!	!	!	!	!	!	!LO:TX:a:t=I	!
!	!	!	!	!LO:N:vis=1	!	!	!	!	!	!	!	!	!
8F\L	.	1r	1r	1r	.	1r	.	8c/	pa-	8a\	pa-	1r	1r
8E\J	6 4	.	.	.	.	.	.	8B/	-tri	8g\	-tri	.	.
4D\	.	.	.	.	.	.	.	(>16f\LL	glo-	(>16dd\LL	glo-	.	.
.	.	.	.	.	.	.	.	16g\JJ)	.	16ee\JJ)	.	.	.
!	!	!	!	!	!	!	!	!LO:LB:g=original	!	!	!	!	!
.	.	.	.	.	.	.	.	16f\	-ri-	(>16dd\LL	-ri-	.	.
.	.	.	.	.	.	.	.	16e\	-a	16cc\JJ)	-a,	.	.
8G\L	.	.	.	.	.	.	.	8d\	fi-	8b\	fi-	.	.
!	!	!	!	!	!	!	!	!	!	!LO:LB:g=original	!	!	!
8F\J	.	.	.	.	.	.	.	16d\	-li-	16b\	-li-	.	.
.	.	.	.	.	.	.	.	16d\	-o'	16b\	-o'	.	.
4E\	.	.	.	.	.	.	.	8g\	et	8ee\	et	.	.
.	.	.	.	.	.	.	.	(>16g\LL	spi-	8dd\	spi-	.	.
.	.	.	.	.	.	.	.	16f\JJ)	.	.	.	.	.
=4	=4	=4	=4	=4	=4	=4	=4	=4	=4	=4	=4	=4	=4
!LO:TX:a:t=P:problem=mixed beam	!	!	!	!	!	!	!	!	!	!	!	!	!
8A\L	X 6	2r	2r	2r	.	2r	.	8e\	-ri-	8cc\	-ri-	2r	2r
8F\	X 5	.	.	.	.	.	.	16f\	-tu-	16dd\	-tu-	.	.
.	.	.	.	.	.	.	.	16e\	-i,	16cc\	-i'	.	.
8G\	.	.	.	.	.	.	.	4d\	San-	8cc\L	San-	.	.
8GG/J	X 4	.	.	.	.	.	.	.	.	8b\J	.	.	.
.	X 3	.	.	.	.	.	.	.	.	.	.	.	.
8C/L	.	8r	8r	8r	.	8r	.	8e\	-cto'	8cc\	-cto'	8r	8r
16C/L	.	16ee\LL	16gg\LL	16D/	Si-	16c\	Si-	16g\	Si-	16ee\	Si-	16ee\LL	16gg\LL
16D/JJ	.	16dd\JJ	16ff\JJ	16D/	-cut	16B\	-cut	16f\	-cut	16dd\	-cut	16dd\JJ	16ff\JJ
!	!	!	!	!LO:LB:g=original	!	!	!	!	!	!	!	!	!
16E\LL	X 6	16cc\LL	16ee\LL	16E/	e-	16c\	e-	16g\	e-	16cc\	e-	8cc\L	8ee\L
16D\	X 6	16dd\	16ff\	16D/	-rat	16B\	-rat	16f\	-rat'	16dd\	-rat	.	.
16E\	X 6	16cc\	16ee\	16E/	in	16c\	in	16g\	in	16cc\	in	16cc\L	16ee\L
!	!	!	!	!	!	!LO:LB:g=original	!	!	!	!	!	!	!
16C\JJ	.	16ee\JJ	16gg\JJ	16C/	prin-	16c\	prin-	16e\	prin-	16ee\	prin-	16cc\JJ	16ee\JJ
=5	=5	=5	=5	=5	=5	=5	=5	=5	=5	=5	=5	=5	=5
!	!	!LO:TX:a:t=P:problem=mixed beam	!	!	!	!	!	!	!	!	!	!	!
8.G\L	.	8dd\L	8bb\L	8.G\	-ci-	8.B\	-ci-	8.g\	-ci-	8.dd\	-ci-	16g/LL	16dd\LL
.	.	.	.	.	.	.	.	.	.	.	.	16g/	16dd\
.	.	16g/L	16b\L	.	.	.	.	.	.	.	.	16g/	16dd\
16G\K	.	16a/JJ	16cc\JJ	16G\	-pi-	16B\	-pi-	16g\	-pi-	16dd\	-pi-	16g/JJ	16dd\JJ
8G\	.	16b\LL	16dd\LL	8G\	-o	8B\	-o	8g\	-o	8dd\	-o	16g/LL	16dd\LL
.	.	16a\	16cc\	.	.	.	.	.	.	.	.	16g/	16dd\
8G\J	.	16b\	16dd\	8G\	et	8B\	et	8g\	et	8dd\	et	16g/	16dd\
.	.	16g\JJ	16b\JJ	.	.	.	.	.	.	.	.	16g/JJ	16dd\JJ
!	!	!	!	!	!	!	!	!LO:LB:g=original	!	!	!	!	!
8E\L	X 6	8cc\L	8ee\L	8E\	n(un)c	8c\	n(un)c	8g\	n(un)c	8ee\	n(un)c,	8cc\L	8ee\L
8C\J	.	8ee\J	8gg\	8C/	et	16c\LL	et	8g\	et	8ee\	et	8ee\J	8gg\
.	X 7	.	.	.	.	16d\JJ	.	.	.	.	.	.	.
4AA/	X 6|	8ee\L	8gg\	4A\	Sem-	(>8e\L	Sem-	(>8g\L	Sem-	8cc\L	Sem-	8ee\L	8gg\
.	.	16dd\L	8ff#X\J	.	.	8c\J)	.	8f#X\J)	.	16dd\L	.	16dd\L	8ff#X\J
.	.	16cc\JJ	.	.	.	.	.	.	.	16cc\JJ	.	16cc\JJ	.
!LO:LB:g=original	!	!	!	!	!	!	!	!	!	!LO:LB:g=original	!	!	!
=6	=6	=6	=6	=6	=6	=6	=6	=6	=6	=6	=6	=6	=6
!	!	!	!	!	!	!	!	!	!	!	!	!LO:TX:a:t=P:problem=chorągiewki 8 z lewej strony	!LO:TX:a:t=P:problem=chorągiewki 8 z lewej strony
8GG/	5	8b\L	8gg\L	8G\	-per	8d\	-per	8g\	-per	8b\	-per,	8dd\	8gg\
.	4 3	.	.	.	.	.	.	.	.	.	.	.	.
4F\	6 2	8cc\	8aa\	4F\	et	(>8A\L	et	(>8a\L	et	8cc\L	et	8r	8r
.	.	8b\	8dd\	.	.	8B\J)	.	8g\J)	.	8dd\J	.	8r	8r
8E\	X 6	8ee\J	8gg\J	8E\	in	8c\	in	8g\	in	8ee\	in	8ee\	8gg\
!	!	!LO:LB:g=original	!	!	!	!	!	!	!	!	!	!	!
!	!	!	!	!	!LO:SIC:s=Sae-	!	!LO:SIC:s=Sae-	!	!LO:SIC:s=Sae-	!	!LO:SIC:s=Sae-	!	!
!	!	!	!	!	!	!	!	!	!	!	!	!LO:LB:g=original	!
8D\L	X 6	16ff\LL	16aa\LL	8D\	Se-	8d\	Se-	8a\	Se-	8ff\	Se-	8ff\L	8aa\L
.	.	16ff\	16aa\	.	.	.	.	.	.	.	.	.	.
16E\L	X 6	16ee\	16gg\	16E\	-cu-	16c\	-cu-	16g\	-cu-	16ee\LL	-cu-	16ee\L	16gg\L
16F\JJ	.	16dd\JJ	16aa\JJ	16F\	-la	16d\	-la	16a\	-la	16dd\JJ	.	16dd\JJ	16aa\JJ
!	!	!	!LO:LB:g=original	!	!	!	!	!	!	!	!	!LO:TX:a:t=P:problem=mixed beam	!
!	!	!	!	!	!LO:SIC:s=Sae-	!	!LO:SIC:s=Sae-	!	!LO:SIC:s=Sae-	!	!	!	!
!	!	!	!	!	!	!	!	!	!	!	!	!	!LO:LB:g=original
8G\L	.	16dd\LL	16bb\LL	8G\	Se-	8B\	Se-	8g\	Se-	(>16dd\LL	-la	8dd\L	8gg\L
.	.	16b\	16dd\	.	.	.	.	.	.	16cc\JJ)	.	.	.
!	!	!	!	!	!	!	!	!	!	!	!LO:SIC:s=Sae-	!	!
8F\J	6 4	16b\	16dd\	8F\	-cu-	8e\	-cu-	8g\	-cu-	(>16dd\LL	Se-	8g/J	8dd\J
.	.	16b\JJ	16dd\JJ	.	.	.	.	.	.	16b\JJ)	.	.	.
!	!	!	!	!LO:LB:g=original	!	!	!	!	!	!	!	!	!
=7	=7	=7	=7	=7	=7	=7	=7	=7	=7	=7	=7	=7	=7
!LO:TX:a:t=P:problem=mixed beam	!	!	!	!	!	!	!	!	!	!	!	!	!
8E\L	X 6	16cc\LL	16ee\LL	8E\	-lo-	8G/	-lo-	8g\	-lo-	(>16cc\LL	-cu-	8cc\L	8ee\L
.	.	16ee\	16gg\	.	.	.	.	.	.	16dd\JJ)	.	.	.
8C\	.	16ee\	16gg\	8C/	-rum	8c\	-rum	8g\	-rum,	(>16ee\LL	-lo-	16ee\L	16gg\L
.	.	16ee\JJ	16gg\JJ	.	.	.	.	.	.	16dd\JJ)	.	16dd\JJ	16ff\JJ
!	!	!	!	!LO:TX:a:t=P:problem=mixed beam	!	!	!	!	!	!	!	!	!
8G\	.	16dd\LL	16gg\LL	(>8G\L	a-	(>8.c\L	a-	4g\	a-	4dd\	-rum,	8cc\L	8ee\L
.	5 4	16dd\	16gg\	.	.	.	.	.	.	.	.	.	.
8GG/J	X 3	16dd\	16gg\	8GG/J)	.	.	.	.	.	.	.	8g\J	16dd\L
.	.	16dd\JJ	16gg\JJ	.	.	16B\Jk)	.	.	.	.	.	.	16cc\JJ
!	!	!	!	!	!	!	!	!	!	!	!	!	!LO:TX:a:t=P:problem=mixed beam
8C\L	.	16ee\LL	16gg\LL	8C/	-men	8B\	-men	8g\	-men	8cc\	a-	16e/LL	16cc\LL
.	.	16ee\	16gg\	.	.	.	.	.	.	.	.	16g/	16g/
!	!	!	!	!	!	!LO:LB:g=original	!	!	!	!	!	!	!
*	*	*	*	*	*	*	*ij	*	*ij	*	*	*	*
8E\	X 6	16ee\	16gg\	8E\L	a-	8G/	a-	8g\	a-	8cc\	-men	16g/	16g/
.	.	16ee\JJ	16gg\JJ	.	.	.	.	.	.	.	.	16g/JJ	16g/JJ
!	!	!	!	!	!	!LO:TX:a:t=P:problem=oddech na dole	!	!	!	!	!	!	!
8F\	X 5	16dd\LL	16aa\LL	8F\	.	8d,\	-men	8a\	-men	8dd\	a-	16g/LL	16g/LL
*	*	*	*	*	*	*	*Xij	*	*Xij	*	*	*	*
.	.	16dd\	16aa\	.	.	.	.	.	.	.	.	16g/	16g/
8G\J	X 4	16gg\	16bb\	8G\J	.	8d\	a-	8g\	a-	8b\	.	16g/	16g/
.	X 3	16gg\JJ	16bb\JJ	.	.	.	.	.	.	.	.	16g/JJ	16g/JJ
=8	=8	=8	=8	=8	=8	=8	=8	=8	=8	=8	=8	=8	=8
4C/	.	4gg\	4ccc\	4C/	-men	4e\	-men	4g\	-men	4cc\	-men	4e/	4g/
4r	.	4r	4r	4r	.	4r	.	4r	.	4r	.	4r	4r
2rBB	.	2r	2r	2r	.	2r	.	2r	.	2r	.	2r	2r
!	!	!	!	!	!	!	!	!	!	!LO:TX:a:t=P:problem=zapis "tereſsa Nubiszewska" znajduje się za podwójną kreską na pięciolinii	!	!	!
!	!	!	!	!	!	!	!	!	!	!LO:TX:i:a:t=Tereſsa\nNubiszowska	!	!	!
==	==	==	==	==	==	==	==	==	==	==	==	==	==
*-	*-	*-	*-	*-	*-	*-	*-	*-	*-	*-	*-	*-	*-
!!!system-decoration: s1,s2,s3,s4,s5,s6,s7,s8,s9
!!!RDF**kern: > = above
!!!RDF**kern: < = below
!!!EED: Mateusz Mrugas
!!!EEV: 2020-11-10
!!!ENC: Andrzej Kubiczek
!!!END: 2020-05-07
!!!YEC: Copyright 2022 Narodowy Instytut Fryderyka Chopina (https://polishscores.org)
!!!YEM: License CC-BY-4.0 (https://creativecommons.org/licenses/by/4.0)
